svg/furkot/mapbox-maki/american_football.svg

<svg viewBox="0 0 512 512" xmlns="http://www.w3.org/2000/svg"><path d="m257.182 78c-174.868 0-257.182 177.231-257.182 177.231s82.314 177.23 257.182 177.23c174.869 0 254.818-177.23 254.818-177.23s-78.769-177.231-254.818-177.231zm136.664 157.539v59.076c0 10.875-8.817 19.693-19.692 19.693s-19.691-8.818-19.691-19.693v-19.691h-78.77v19.691c0 10.875-8.818 19.693-19.693 19.693s-19.692-8.818-19.692-19.693v-19.691h-78.769v19.691c0 10.875-8.818 19.693-19.693 19.693s-19.692-8.818-19.692-19.693v-78.769c0-10.873 8.819-19.692 19.692-19.692s19.693 8.819 19.693 19.692v19.693h78.769v-19.693c0-10.873 8.819-19.692 19.692-19.692s19.693 8.819 19.693 19.692v19.693h78.77v-19.693c0-10.873 8.816-19.692 19.691-19.692s19.692 8.819 19.692 19.692z"/></svg>

<svg viewBox="0 0 512 512" xmlns="http://www.w3.org/2000/svg"><path d="M 257.182 78 C 82.314 78 0 255.231 0 255.231 C 0 255.231 82.314 432.461 257.182 432.461 C 432.051 432.461 512 255.231 512 255.231 C 512 255.231 433.231 78 257.182 78 Z M 393.846 235.539 L 393.846 294.615 C 393.846 305.49 385.029 314.308 374.154 314.308 C 363.279 314.308 354.463 305.49 354.463 294.615 L 354.463 274.924 L 275.693 274.924 L 275.693 294.615 C 275.693 305.49 266.875 314.308 256 314.308 C 245.125 314.308 236.308 305.49 236.308 294.615 L 236.308 274.924 L 157.539 274.924 L 157.539 294.615 C 157.539 305.49 148.721 314.308 137.846 314.308 C 126.971 314.308 118.154 305.49 118.154 294.615 L 118.154 215.846 C 118.154 204.973 126.973 196.154 137.846 196.154 C 148.719 196.154 157.539 204.973 157.539 215.846 L 157.539 235.539 L 236.308 235.539 L 236.308 215.846 C 236.308 204.973 245.127 196.154 256 196.154 C 266.873 196.154 275.693 204.973 275.693 215.846 L 275.693 235.539 L 354.463 235.539 L 354.463 215.846 C 354.463 204.973 363.279 196.154 374.154 196.154 C 385.029 196.154 393.846 204.973 393.846 215.846 L 393.846 235.539 Z"/></svg>
